!!!COM: Bach, Johann Sebastian
!!!OPR: Joh. Seb. Bachs vierstimmige Choralges‰nge
!!!XEN: Four-part Chorales
!!!OTL: 140. O Welt, sieh' hier dein Leben
!!!SCT: BWV 393
!!!SCA: Thematisch-systematisches Verzeichnis der musikalischen Werke Johann Sebastian Bach: Bach-Werke-Verzeichnis (Schmieder)
!!!YOR: Bach Gesellschaft Edition xxxix
!!!ENC: Steven Rasmussen
!!!CDT: 1685/3//-1750/7/28/
!!!OCY: Deutschland
!!!YEC: Copyright (c) 1994, 2000 Center for Computer Assisted Research in the Humanities
!!!YEM: Rights to all derivative editions reserved
!!!YEN: United States of America
**kern	**silbe	**kern	**kern	**kern
*I:[SOPRANO]	*I:[SOPRANO]	*I:[ALTO]	*I:[TENORE]	*I:[BASSO]
*clefG2	*	*clefG2	*clefGv2	*clefF4
*k[f#c#g#]	*	*k[f#c#g#]	*k[f#c#g#]	*k[f#c#g#]
*A:	*	*A:	*A:	*A:
*M4/4	*	*M4/4	*M4/4	*M4/4
4cc#	O	4g#	4c#	4E#
=1	=1	=1	=1	=1
4a	Welt,	4f#	4c#	4F#
4b	sieh'	4e	4B	4G#
8cc#L	hier	4e	4A	4A
8ddJ	.	.	.	.
4ee	dein	4e	4A	4C#
=2	=2	=2	=2	=2
2dd	Le-	4f#	4A	4BB
.	.	4e	4G#	4E
4cc#;	-ben	4e;	4A;	4AA;
8cc#L	am	4a	4e	4A
8ddJ	.	.	.	.
=3	=3	=3	=3	=3
4ee	Stamm	8aL	4e	4C#
.	.	8g#J	.	.
4ee	des	4a	4e	8C#L
.	.	.	.	8DJ
4b	Kreu-	8g#L	4e	4E
.	.	8f#J	.	.
4cc#	-zes	8f#L	4G#	4C#
.	.	8eJ	.	.
=4	=4	=4	=4	=4
2a	schwe-	4e	8F#L	2F#
.	.	.	8G#J	.
.	.	4d#	4A	.
4g#;	-ben,	4e;	4B;	4E;
4e	dein	8eL	4G#	4E
.	.	8dnJ	.	.
=5	=5	=5	=5	=5
4a	Heil	4c#	4c#	4F#
4b	sinkt	4e	4B	4G#
8cc#L	in	4e	4A	4A
16ddL	.	.	.	.
16eeJJ	.	.	.	.
8ddL	den	4a	4f#	4D
8cc#J	.	.	.	.
=6	=6	=6	=6	=6
2.b;	Tod,	2.g#;	2.B;	2.E;
4cc#	der	4g#	4G#	4E#
=7	=7	=7	=7	=7
4a	gro-	(8g#	4c#	4F#
.	.	4f#)	.	.
4b	-sse	.	4B	4G#
.	.	8e	.	.
8cc#L	F√ºrst	4e	8AL	4A
8ddJ	.	.	8BJ	.
4ee	der	4f#	4c#	4A#
=8	=8	=8	=8	=8
2dd	Eh-	2f#	4c#	2B
.	.	.	4B	.
4cc#;	-ren	4f#;	4A#;	4F#;
8cc#L	l√§sst	4e	4An	4A
8ddJ	.	.	.	.
=9	=9	=9	=9	=9
4ee	wil-	8eL	4B	4G#
.	.	8f#J	.	.
4ee	-lig	4g#	4B	8F#L
.	.	.	.	8EJ
4b	sich	4f#	8BL	4D#
.	.	.	8AJ	.
4cc#	be-	4e	4G#	4E
=10	=10	=10	=10	=10
2a	-schwe-	2f#	4c#	4E
.	.	.	4B	4D#
4g#;	-ren	4e;	4B;	4E;
4e	mit	4g#	4B	8EL
.	.	.	.	8DnJ
=11	=11	=11	=11	=11
4a	Schl√§-	4a	4e	4C#
4b	-gen,	8aL	4d	4BB
.	.	8g#J	.	.
4cc#	Hohn	4a	4e	(8AA
.	.	.	.	4Gn)
4dd	und	4a	4d	.
.	.	.	.	8F#
=12	=12	=12	=12	=12
4cc#	gro-	4.a	8eL	8EL
.	.	.	8f#J	8D#J
4b	-ssem	.	16BLL	4E
.	.	.	16c#J	.
.	.	8g#	8dJ	.
2a;	Spott.	2e;	2c#;	2AA;
==|!	==|!	==|!	==|!	==|!
*-	*-	*-	*-	*-
!!!RWG: Key is interpreted using the Humdrum key tool.
!!!END: 1994/07/19
!!!EMD: Converted from MuseData to Humdrum Dec 19, 2000, by Andreas Kornstaedt using muse2kern.
!!!EED: Craig Stuart Sapp
!!!EEV: 2024/03/31
!!!ONB: Some non-unicode characters
